dist/svg/u1F529.svg

<?xml version="1.0" encoding="UTF-8"?><svg id="a" xmlns="http://www.w3.org/2000/svg" viewBox="0 0 40 40"><rect x="0" width="40" height="40" fill="none"/><g><g><polygon points="4.984 29.01 12.591 33.401 14.166 31.827 6.559 27.435 4.984 29.01" fill="#8595aa"/><polygon points="12.202 21.792 19.809 26.183 21.384 24.609 13.777 20.217 12.202 21.792" fill="#8595aa"/><polygon points="7.39 26.604 14.997 30.995 16.572 29.421 8.965 25.029 7.39 26.604" fill="#8595aa"/><polygon points="9.796 24.198 17.403 28.589 18.978 27.015 11.371 22.623 9.796 24.198" fill="#8595aa"/><polygon points="14.608 19.386 22.215 23.777 23.79 22.202 16.183 17.811 14.608 19.386" fill="#8595aa"/><polygon points="22.755 11.24 21.826 12.168 26.219 14.704 22.755 11.24" fill="#8595aa"/><polygon points="2.578 31.416 10.185 35.807 11.76 34.233 4.153 29.841 2.578 31.416" fill="#8595aa"/><polygon points="28.602 17.39 20.995 12.999 19.42 14.574 27.027 18.965 28.602 17.39" fill="#8595aa"/><path d="M2.32,33.279l4.395,4.395c.443,.443,1.161,.443,1.604,0l1.035-1.035-7.351-4.243c-.023,.317,.074,.641,.316,.883Z" fill="#8595aa"/><polygon points="18.589 15.405 17.014 16.98 24.621 21.371 26.196 19.796 18.589 15.405" fill="#8595aa"/><polygon points="28.754 17.239 26.219 14.704 21.826 12.168 20.995 12.999 28.602 17.39 28.754 17.239" fill="#65778e"/><polygon points="27.027 18.965 19.42 14.574 18.589 15.405 26.196 19.796 27.027 18.965" fill="#65778e"/><polygon points="16.183 17.811 23.79 22.202 24.621 21.371 17.014 16.98 16.183 17.811" fill="#65778e"/><polygon points="13.777 20.217 21.384 24.609 22.215 23.777 14.608 19.386 13.777 20.217" fill="#65778e"/><polygon points="11.371 22.623 18.978 27.015 19.809 26.183 12.202 21.792 11.371 22.623" fill="#65778e"/><polygon points="8.965 25.029 16.572 29.421 17.403 28.589 9.796 24.198 8.965 25.029" fill="#65778e"/><polygon points="6.559 27.435 14.166 31.827 14.997 30.995 7.39 26.604 6.559 27.435" fill="#65778e"/><polygon points="4.153 29.841 11.76 34.233 12.591 33.401 4.984 29.01 4.153 29.841" fill="#65778e"/><path d="M2.32,31.675c-.201,.201-.297,.459-.316,.721l7.351,4.243,.831-.831-7.607-4.391-.258,.258Z" fill="#65778e"/></g><g><rect x="24.177" y="6.565" width="7.79" height="10.716" transform="translate(-.209 23.341) rotate(-45)" fill="#e5e9ee"/><path d="M31.075,13.711h4.386c.537,0,.972,.436,.972,.972v5.845c0,.537-.436,.972-.972,.972h-4.386v-7.79h0Z" transform="translate(22.335 -18.711) rotate(45)" fill="#abb7c7"/><path d="M20.682,2.345h4.386v7.79h-4.386c-.537,0-.972-.436-.972-.972V3.317c0-.537,.436-.972,.972-.972Z" transform="translate(10.969 -14.003) rotate(45)" fill="#d0d6de"/></g><g><rect x="8.816" y="21.925" width="10.716" height="7.79" transform="translate(22.409 -2.46) rotate(45)" fill="#e5e9ee"/><path d="M17.178,27.608h4.386c.537,0,.972,.436,.972,.972v5.845c0,.537-.436,.972-.972,.972h-4.386v-7.79h0Z" transform="translate(28.092 -4.814) rotate(45)" fill="#abb7c7"/><path d="M6.784,16.242h4.386v7.79H6.784c-.537,0-.972-.436-.972-.972v-5.845c0-.537,.436-.972,.972-.972Z" transform="translate(16.726 -.106) rotate(45)" fill="#d0d6de"/></g></g></svg>

<svg id="Layer_1" data-name="Layer 1" xmlns="http://www.w3.org/2000/svg" viewBox="0 0 40 40"><defs><style>.cls-1{fill:none;}.cls-2{fill:#8595aa;}.cls-3{fill:#65778e;}.cls-4{fill:#e5e9ee;}.cls-5{fill:#abb7c7;}.cls-6{fill:#d0d6de;}</style></defs><rect class="cls-1" width="40" height="40"/><polygon class="cls-2" points="4.984 29.01 12.591 33.401 14.166 31.827 6.559 27.435 4.984 29.01"/><polygon class="cls-2" points="12.202 21.792 19.809 26.183 21.384 24.609 13.777 20.217 12.202 21.792"/><polygon class="cls-2" points="7.39 26.604 14.997 30.995 16.572 29.421 8.965 25.029 7.39 26.604"/><polygon class="cls-2" points="9.796 24.198 17.403 28.589 18.978 27.015 11.371 22.623 9.796 24.198"/><polygon class="cls-2" points="14.608 19.386 22.215 23.777 23.79 22.202 16.183 17.811 14.608 19.386"/><polygon class="cls-2" points="22.755 11.24 21.826 12.168 26.219 14.704 22.755 11.24"/><polygon class="cls-2" points="2.578 31.416 10.185 35.807 11.76 34.233 4.153 29.841 2.578 31.416"/><polygon class="cls-2" points="28.602 17.39 20.995 12.999 19.42 14.574 27.027 18.965 28.602 17.39"/><path class="cls-2" d="M2.32,33.279l4.395,4.395a1.134,1.134,0,0,0,1.6,0l1.035-1.035L2,32.4A1.118,1.118,0,0,0,2.32,33.279Z"/><polygon class="cls-2" points="18.589 15.405 17.014 16.98 24.621 21.371 26.196 19.796 18.589 15.405"/><polygon class="cls-3" points="28.754 17.239 26.219 14.704 21.826 12.168 20.995 12.999 28.602 17.39 28.754 17.239"/><polygon class="cls-3" points="27.027 18.965 19.42 14.574 18.589 15.405 26.196 19.796 27.027 18.965"/><polygon class="cls-3" points="16.183 17.811 23.79 22.202 24.621 21.371 17.014 16.98 16.183 17.811"/><polygon class="cls-3" points="13.777 20.217 21.384 24.609 22.215 23.777 14.608 19.386 13.777 20.217"/><polygon class="cls-3" points="11.371 22.623 18.978 27.015 19.809 26.183 12.202 21.792 11.371 22.623"/><polygon class="cls-3" points="8.965 25.029 16.572 29.421 17.403 28.589 9.796 24.198 8.965 25.029"/><polygon class="cls-3" points="6.559 27.435 14.166 31.827 14.997 30.995 7.39 26.604 6.559 27.435"/><polygon class="cls-3" points="4.153 29.841 11.76 34.233 12.591 33.401 4.984 29.01 4.153 29.841"/><path class="cls-3" d="M2.32,31.675A1.118,1.118,0,0,0,2,32.4l7.351,4.244.831-.832L2.578,31.416Z"/><rect class="cls-4" x="24.177" y="6.565" width="7.79" height="10.716" transform="translate(-0.209 23.341) rotate(-45)"/><path class="cls-5" d="M31.075,13.711h4.386a.972.972,0,0,1,.972.972v5.845a.972.972,0,0,1-.972.972H31.075a0,0,0,0,1,0,0v-7.79a0,0,0,0,1,0,0Z" transform="translate(22.335 -18.711) rotate(45)"/><path class="cls-6" d="M20.682,2.345h4.386a0,0,0,0,1,0,0v7.79a0,0,0,0,1,0,0H20.682a.972.972,0,0,1-.972-.972V3.317A.972.972,0,0,1,20.682,2.345Z" transform="translate(10.969 -14.003) rotate(45)"/><rect class="cls-4" x="8.816" y="21.925" width="10.716" height="7.79" transform="translate(22.409 -2.46) rotate(45)"/><path class="cls-5" d="M17.178,27.608h4.386a.972.972,0,0,1,.972.972v5.845a.972.972,0,0,1-.972.972H17.178a0,0,0,0,1,0,0v-7.79A0,0,0,0,1,17.178,27.608Z" transform="translate(28.092 -4.814) rotate(45)"/><path class="cls-6" d="M6.784,16.242H11.17a0,0,0,0,1,0,0v7.79a0,0,0,0,1,0,0H6.784a.972.972,0,0,1-.972-.972V17.215A.972.972,0,0,1,6.784,16.242Z" transform="translate(16.726 -0.106) rotate(45)"/></svg>
